icons/marionette.svg

<?xml version="1.0" encoding="UTF-8" standalone="no" ?>
<svg width="256px" height="315px" viewBox="0 0 256 315" version="1.1" xmlns="http://www.w3.org/2000/svg" xmlns:xlink="http://www.w3.org/1999/xlink" preserveAspectRatio="xMidYMid">
    <g>
        <path d="M150.815217,142.832419 L180.260392,73.1856003 C180.609062,72.3487925 181.585338,71.9530521 182.429119,72.3034654 C183.269414,72.6521353 183.672127,73.6144644 183.318228,74.4530156 L157.368468,135.82241 L150.815217,142.832419 L150.815217,142.832419 Z" fill="#939598"></path>
        <path d="M176.215821,107.388377 C176.215821,107.388377 162.124326,125.855679 152.178517,136.524979 C142.22399,147.197767 127.719321,164.024577 127.719321,164.024577 L127.719321,201.646063 C127.823921,201.639089 127.919805,201.618169 128.024407,201.618169 C130.430229,201.618169 132.379294,203.54457 132.379294,205.924242 C132.379294,208.305658 130.428487,210.235546 128.024407,210.235546 C127.919805,210.235546 127.823921,210.21114 127.719321,210.202422 L127.719321,248.158631 C127.719321,248.158631 145.986139,235.745981 159.218162,223.737789 C174.137748,210.197193 190.718747,189.053848 190.718747,189.053848 L176.215821,107.39012 L176.215821,107.388377 L176.215821,107.388377 Z" fill="#931A2B"></path>
        <path d="M117.376027,38.5487295 L117.240046,53.2155301 L64.0103512,74.5366963 L64.9465299,61.5051576 L117.377771,38.5452428 L117.376027,38.5487295 L117.376027,38.5487295 Z" fill="#A7A9AC"></path>
        <path d="M191.325433,60.9926129 L192.362726,74.0189214 L138.864555,53.1266193 L138.611769,38.4650487 L191.325433,60.9926129 L191.325433,60.9926129 Z M127.972106,33.9114195 L128.027894,48.892023 L50.1611815,18.4792883 L51.7772667,1.33867462 L127.972106,33.9114195 L127.972106,33.9114195 Z M51.7772667,1.33867462 L50.1611815,18.4792883 L39.8353215,24.5722954 L41.6205116,7.83613875 L51.7772667,1.33867462 L51.7772667,1.33867462 Z" fill="#BCBEC0"></path>
        <path d="M203.82002,0.700608645 L205.563369,17.8307623 L128.027894,48.892023 L127.970363,33.9096761 L203.82002,0.700608645 L203.82002,0.700608645 Z" fill="#A7A9AC"></path>
        <path d="M214.053482,7.11613535 L215.969423,23.8400885 L205.565112,17.8307623 L203.821763,0.702351985 L214.053482,7.11613535 L214.053482,7.11613535 Z" fill="#BCBEC0"></path>
        <path d="M74.6081737,77.5335144 L64.0086077,74.5384397 L117.240046,53.2172734 L39.8353215,24.5740388 L50.1611815,18.4792883 L128.027894,48.892023 L205.565112,17.8307623 L215.969423,23.8400885 L138.864555,53.1283626 L192.362726,74.0189214 L181.78931,77.1011636 L128.076707,57.2269777 L74.6081737,77.5300276 L74.6081737,77.5335144 L74.6081737,77.5335144 Z" fill="#808285"></path>
        <path d="M40.6756161,120.550667 C40.6198289,120.550667 40.5640417,120.550667 40.5099979,120.54195 C39.5999694,120.451296 38.9340098,119.652842 39.024664,118.7463 L48.5137161,24.0649807 C48.6043702,23.1671556 49.395851,22.5046827 50.3267997,22.5953369 C51.2368282,22.6825044 51.9027878,23.4879319 51.8121337,24.3875003 L42.3248249,119.06882 C42.2376574,119.916087 41.522884,120.550667 40.6791028,120.550667 L40.6756161,120.550667 L40.6756161,120.550667 Z M211.295503,120.550667 C210.429058,120.550667 209.695108,119.877734 209.644551,119.007802 L203.908931,23.6762136 C203.853144,22.7696719 204.54874,21.9903946 205.463998,21.9363507 C206.400177,21.8753334 207.165508,22.57093 207.221294,23.4774718 L212.951685,118.803831 C213.009215,119.710372 212.315363,120.487907 211.400104,120.543694 C211.363493,120.548923 211.33037,120.548923 211.295503,120.550667 L211.295503,120.550667 L211.295503,120.550667 Z M100.531783,139.603735 L73.0827427,74.8905963 C72.7288427,74.0537884 73.1263264,73.0879728 73.966621,72.7375595 C74.8138889,72.3888896 75.7849347,72.7828866 76.1388346,73.617951 L106.605613,145.443957 L100.531783,139.603735 L100.531783,139.603735 Z" fill="#939598"></path>
        <path d="M123.676493,205.927729 C123.676493,203.650915 125.461683,201.806451 127.721064,201.647805 L127.721064,164.026321 C127.721064,164.026321 113.211165,147.197767 103.261868,136.524979 C93.3143154,125.855679 79.2210769,107.388377 79.2210769,107.388377 L64.7164077,189.060822 C64.7164077,189.060822 81.2956629,210.202422 96.2152492,223.743019 C109.447273,235.751211 127.717578,248.162118 127.717578,248.162118 L127.717578,210.204166 C125.463426,210.045522 123.676493,208.199314 123.676493,205.927729 L123.676493,205.927729 L123.676493,205.927729 Z" fill="#A81E2C"></path>
        <path d="M128.024407,208.387596 C127.623436,208.387596 127.215493,208.244641 126.898203,207.951758 L69.7686351,155.429864 L69.7512016,150.935508 L128.013947,204.49121 L185.537512,150.297442 L185.769377,154.607002 L129.166301,207.932581 C128.845525,208.239411 128.434094,208.389339 128.02092,208.389339 L128.024407,208.389339 L128.024407,208.387596 L128.024407,208.387596 Z" fill="#939598"></path>
        <path d="M247.515336,118.878795 L176.217565,107.39012 C176.217565,107.39012 182.849267,145.145844 182.849267,208.347499 C182.849267,271.556127 174.144722,314.648243 174.144722,314.648243 L246.272327,306.848497 C246.272327,306.848497 255.388302,272.365041 255.388302,212.857545 C255.384816,153.351791 247.511848,118.877051 247.511848,118.877051 L247.515336,118.878795 L247.515336,118.878795 Z M214.55731,285.508154 C212.611732,285.508154 211.034,283.949599 211.034,282.021455 C211.034,280.100283 212.609989,278.534756 214.55731,278.534756 C216.504631,278.534756 218.078876,280.100283 218.078876,282.021455 C218.078876,283.946113 216.506375,285.508154 214.55731,285.508154 L214.55731,285.508154 L214.55731,285.508154 Z M72.5893748,208.345755 C72.5893748,145.1441 79.2210769,107.388377 79.2210769,107.388377 L7.92504959,118.877051 C7.92504959,118.877051 0.0503392252,153.353533 0.0503392252,212.861031 C0.0503392252,272.375502 9.16805785,306.851984 9.16805785,306.851984 L81.2939195,314.655217 C81.2939195,314.6465 72.5893748,271.55787 72.5893748,208.345755 L72.5893748,208.345755 L72.5893748,208.345755 Z M39.5563857,285.279775 C37.7433019,285.279775 36.2701715,283.820591 36.2701715,282.024942 C36.2701715,280.227548 37.7398153,278.770107 39.5546422,278.770107 C41.3677259,278.770107 42.839113,280.227548 42.839113,282.021455 C42.839113,283.813618 41.3694693,285.274545 39.5546422,285.274545 L39.5563857,285.279775 L39.5563857,285.279775 Z" fill="#CE2227"></path>
        <ellipse fill="#A51724" cx="214.55731" cy="139.605479" rx="3.25832049" ry="3.22519685"></ellipse>
        <path d="M214.560797,283.663691 C214.433532,283.663691 214.302781,283.646256 214.17203,283.614876 C213.282922,283.407417 212.732023,282.52877 212.942968,281.637918 C212.993526,281.435689 217.871417,260.457963 217.871417,211.874295 C217.871417,163.196487 212.983065,140.173811 212.935994,139.950662 C212.74597,139.061553 213.314302,138.189878 214.206896,137.99811 C215.096006,137.806342 215.986856,138.371187 216.176882,139.258552 C216.227439,139.485187 221.187269,162.854789 221.187269,211.874295 C221.187269,260.921694 216.37388,281.540291 216.169908,282.394531 C215.986856,283.159862 215.306951,283.665433 214.559054,283.665433 L214.559054,283.663691 L214.560797,283.663691 L214.560797,283.663691 Z" fill="#939598"></path>
        <ellipse fill="#A51724" cx="39.5563857" cy="139.605479" rx="3.82142243" ry="3.78306873"></ellipse>
        <path d="M39.5528989,283.663691 C38.745728,283.663691 38.0396714,283.076182 37.9141502,282.262037 C37.8740532,281.990074 33.7510313,254.347522 33.7510313,211.018311 C33.7510313,167.687354 37.8740532,139.645576 37.9141502,139.36664 C38.0501316,138.468815 38.8904261,137.849926 39.7969679,137.984163 C40.7035097,138.114915 41.3311155,138.951722 41.1968776,139.846061 C41.1532939,140.124997 37.0686256,167.948857 37.0686256,211.021797 C37.0686256,254.11217 41.1567805,281.51414 41.1951343,281.777386 C41.3346023,282.666494 40.7069964,283.512019 39.8004546,283.646256 C39.7167738,283.65323 39.633093,283.663691 39.5528989,283.663691 L39.5528989,283.663691 L39.5528989,283.663691 Z" fill="#939598"></path>
    </g>
</svg>

<svg xmlns="http://www.w3.org/2000/svg" viewBox="0 0 255.338 313.955">
  <g transform="translate(-.05 -.7)">
    <path fill="#939598" d="m150.815 142.832 29.445-69.646a1.662 1.662 0 0 1 2.17-.883 1.64 1.64 0 0 1 .888 2.15l-25.95 61.37z"/>
    <path fill="#931a2b" d="M176.216 107.388s-14.092 18.468-24.037 29.137c-9.955 10.673-24.46 27.5-24.46 27.5v37.621c.105-.007.2-.028.305-.028 2.406 0 4.355 1.927 4.355 4.306 0 2.382-1.95 4.312-4.355 4.312-.104 0-.2-.025-.305-.034v37.957s18.267-12.413 31.5-24.421c14.919-13.54 31.5-34.684 31.5-34.684l-14.503-81.664v-.002z"/>
    <path fill="#a7a9ac" d="m117.376 38.549-.136 14.667-53.23 21.32.937-13.03 52.43-22.96-.001.003z"/>
    <path fill="#bcbec0" d="m191.325 60.993 1.038 13.026-53.498-20.892-.253-14.662zM127.972 33.91l.056 14.981L50.16 18.479l1.616-17.14zM51.777 1.34l-1.616 17.14-10.326 6.093 1.786-16.736z"/>
    <path fill="#a7a9ac" d="m203.82.7 1.743 17.13-77.535 31.062-.058-14.982z"/>
    <path fill="#bcbec0" d="m214.053 7.116 1.916 16.724-10.404-6.01L203.822.703z"/>
    <path fill="#808285" d="m74.608 77.534-10.6-2.996 53.232-21.32-77.405-28.644 10.326-6.095 77.867 30.413 77.537-31.061 10.404 6.01-77.104 29.287 53.498 20.89-10.574 3.083-53.712-19.874L74.608 77.53v.004z"/>
    <path fill="#939598" d="M40.676 120.55c-.056 0-.112 0-.166-.008a1.644 1.644 0 0 1-1.485-1.796l9.489-94.681c.09-.898.882-1.56 1.813-1.47.91.087 1.576.893 1.485 1.792l-9.487 94.682a1.652 1.652 0 0 1-1.646 1.481h-.003zm170.62 0a1.65 1.65 0 0 1-1.651-1.542l-5.736-95.332a1.647 1.647 0 0 1 1.555-1.74 1.637 1.637 0 0 1 1.757 1.541l5.73 95.327a1.644 1.644 0 0 1-1.55 1.74c-.038.005-.07.005-.106.007zm-110.764 19.054L73.082 74.89a1.642 1.642 0 0 1 .885-2.153 1.668 1.668 0 0 1 2.172.88l30.467 71.826z"/>
    <path fill="#a81e2c" d="M123.676 205.928c0-2.277 1.786-4.122 4.045-4.28v-37.622s-14.51-16.828-24.46-27.501c-9.947-10.67-24.04-29.137-24.04-29.137l-14.505 81.673s16.58 21.141 31.5 34.682c13.231 12.008 31.502 24.42 31.502 24.42v-37.959c-2.255-.158-4.042-2.005-4.042-4.276z"/>
    <path fill="#939598" d="M128.024 208.388c-.4 0-.809-.143-1.126-.436l-57.13-52.522-.017-4.494 58.263 53.555 57.524-54.194.231 4.31-56.603 53.326c-.32.306-.732.456-1.145.456h.003v-.002z"/>
    <path fill="#ce2227" d="m247.515 118.879-71.297-11.489s6.631 37.756 6.631 100.957c0 63.21-8.704 106.301-8.704 106.301l72.127-7.8s9.116-34.483 9.116-93.99c-.003-59.506-7.876-93.981-7.876-93.981l.003.002zm-32.958 166.63c-1.945 0-3.523-1.56-3.523-3.488 0-1.92 1.576-3.486 3.523-3.486 1.948 0 3.522 1.565 3.522 3.486 0 1.925-1.573 3.487-3.522 3.487zM72.59 208.345c0-63.202 6.632-100.958 6.632-100.958L7.925 118.877S.05 153.354.05 212.861c0 59.515 9.118 93.991 9.118 93.991l72.126 7.803c0-.009-8.705-43.097-8.705-106.31zM39.556 285.28c-1.813 0-3.286-1.46-3.286-3.255 0-1.797 1.47-3.255 3.285-3.255 1.813 0 3.284 1.458 3.284 3.251s-1.47 3.254-3.284 3.254l.001.005z"/>
    <ellipse cx="214.557" cy="139.605" fill="#a51724" rx="3.258" ry="3.225"/>
    <path fill="#939598" d="M214.56 283.664c-.126 0-.257-.018-.388-.05a1.638 1.638 0 0 1-1.229-1.976c.05-.202 4.928-21.18 4.928-69.764 0-48.678-4.888-71.7-4.935-71.923-.19-.89.378-1.761 1.27-1.953.89-.192 1.78.373 1.97 1.26.051.227 5.011 23.597 5.011 72.616 0 49.048-4.813 69.666-5.017 70.52a1.654 1.654 0 0 1-1.611 1.271v-.002h.002z"/>
    <ellipse cx="39.556" cy="139.605" fill="#a51724" rx="3.821" ry="3.783"/>
    <path fill="#939598" d="M39.553 283.664a1.659 1.659 0 0 1-1.639-1.402c-.04-.272-4.163-27.914-4.163-71.244s4.123-71.372 4.163-71.651a1.654 1.654 0 0 1 1.883-1.383c.907.13 1.534.968 1.4 1.862-.044.279-4.128 28.103-4.128 71.176 0 43.09 4.088 70.492 4.126 70.755.14.89-.488 1.735-1.395 1.87-.083.006-.167.017-.247.017z"/>
  </g>
</svg>
